assets/svg/icon_feed_quote.svg

<svg width="24" height="24" viewBox="0 0 24 24" fill="none" xmlns="http://www.w3.org/2000/svg">
<path d="M13.0273 15.3936V14.3259C13.0273 13.331 13.0273 12.8336 13.1898 12.4411C13.4066 11.918 13.8223 11.5023 14.3454 11.2855C14.7379 11.123 15.2353 11.123 16.2302 11.123H16.7641C18.2635 11.123 19.0132 11.123 19.5518 11.4829C19.7849 11.6387 19.9851 11.8389 20.1409 12.0721C20.5008 12.6106 20.5008 13.3603 20.5008 14.8598V15.7599C20.5008 16.6327 20.5008 17.0691 20.3383 17.4615C20.1757 17.8539 19.8671 18.1625 19.2499 18.7797L18.6213 19.4083C18.133 19.8966 17.2979 19.5507 17.2979 18.8601V18.467C17.2979 17.9488 16.8779 17.5288 16.3597 17.5288H15.1626C13.9833 17.5288 13.0273 16.5729 13.0273 15.3936Z" stroke="#0166FF" stroke-width="1.2" stroke-linejoin="round"/>
<path d="M3.5 8.62991V7.56227C3.5 6.56737 3.5 6.06991 3.66254 5.67751C3.87926 5.15431 4.29494 4.73863 4.81813 4.52191C5.21054 4.35937 5.70799 4.35938 6.7029 4.35938H7.23671C8.73616 4.35938 9.48588 4.35937 10.0245 4.71923C10.2576 4.87502 10.4578 5.0752 10.6136 5.30835C10.9734 5.84692 10.9734 6.59664 10.9734 8.09609V8.99626C10.9734 9.869 10.9734 10.3054 10.8109 10.6978C10.6484 11.0903 10.3398 11.3988 9.72262 12.016L9.09402 12.6446C8.60562 13.133 7.77053 12.7871 7.77053 12.0964V11.7033C7.77053 11.1852 7.35052 10.7652 6.83242 10.7652H5.63526C4.45599 10.7652 3.5 9.80921 3.5 8.62991Z" stroke="#0166FF" stroke-width="1.2" stroke-linejoin="round"/>
</svg>

<svg xmlns="http://www.w3.org/2000/svg" width="24" height="24" fill="none"><path stroke="#0166FF" stroke-linejoin="round" stroke-width="1.2" d="M13.027 15.394v-1.068c0-.995 0-1.492.163-1.885a2.14 2.14 0 0 1 1.155-1.155c.393-.163.89-.163 1.885-.163h.534c1.5 0 2.25 0 2.788.36.233.156.433.356.589.59.36.538.36 1.287.36 2.787v.9c0 .873 0 1.31-.163 1.702-.162.392-.47.7-1.088 1.318l-.629.628a.775.775 0 0 1-1.323-.548v-.393a.94.94 0 0 0-.938-.938h-1.197a2.135 2.135 0 0 1-2.136-2.135ZM3.5 8.63V7.562c0-.995 0-1.492.163-1.884a2.13 2.13 0 0 1 1.155-1.156c.393-.163.89-.163 1.885-.163h.534c1.5 0 2.249 0 2.787.36.234.156.434.356.59.59.36.538.36 1.288.36 2.787v.9c0 .873 0 1.31-.163 1.702s-.471.7-1.088 1.318l-.629.629a.775.775 0 0 1-1.323-.549v-.393a.94.94 0 0 0-.939-.938H5.635A2.135 2.135 0 0 1 3.5 8.63Z"/></svg>
